svg/pie-chart-alt.svg

<svg xmlns="http://www.w3.org/2000/svg" viewBox="0 0 64 64" enable-background="new 0 0 64 64"><style type="text/css">.st0{fill:#333333;}</style><title>pie-chart-alt</title><desc>Created with Sketch.</desc><path class="st0" d="M.1 30h9c.9-11.1 9.8-20 20.9-20.9v-9c-16.1 1-28.9 13.8-29.9 29.9zM34 .1v9c11.8 1 21 10.9 21 22.9 0 5.9-2.2 11.3-5.8 15.3l6.4 6.4c5.2-5.7 8.4-13.3 8.4-21.7 0-17-13.3-30.9-30-31.9zM9.1 34h-9c1 16.1 13.9 28.9 29.9 29.9v-9c-11.1-.9-20-9.8-20.9-20.9zM34 54.9v9c7.1-.4 13.5-3.2 18.6-7.5l-6.4-6.4c-3.4 2.8-7.6 4.5-12.2 4.9z"/></svg>

<svg xmlns="http://www.w3.org/2000/svg" viewBox="0 0 64 64"><path d="M.1 30h9C10 18.9 18.9 10 30 9.1v-9C13.9 1.1 1.1 13.9.1 30zM34 .1v9C45.8 10.1 55 20 55 32c0 5.9-2.2 11.3-5.8 15.3l6.4 6.4C60.8 48 64 40.4 64 32 64 15 50.7 1.1 34 .1zM9.1 34h-9C1.1 50.1 14 62.9 30 63.9v-9C18.9 54 10 45.1 9.1 34zM34 54.9v9c7.1-.4 13.5-3.2 18.6-7.5L46.2 50c-3.4 2.8-7.6 4.5-12.2 4.9z" fill="#333"/></svg>
